X: 1
T: Miss Plaudy's
M: 4/4
L: 1/8
R: reel
K: Gmaj
|:d|BG (3GGG Bcdg|BGgB aAAd|BG (3GGG Bcde|dega bg gd|
BG (3GGG Bcdg|BGgB aAAd|BG (3GGG Bcde|dega bg g:|
|:a|bgfg egdg|cgBg aAAa|bgfg egdg|efga bgga|
bgfg egdg|cgBg aAAc|BGcA dBge|dBcA BG G:|
